X:125
T: Bob and Joan
T: B\'othar na gCloch
T: Hi for Stoneybatter
S: "Ceol Rince na hEireann" 1/63
Z: B.Black
L: 1/8
M: 9/8
R: slip jig
K: G
B2F G2E G2A|B2F G2E FGA|
B2F G2E F2E|D3 F2D F2A :|
G3 B2G d3|G3 A2G FED|
G3 B2G d3|e2c A2G FGA :|
